; generated by PrusaSlicer 2.2.0+linux-x64 on 2021-02-16 at 13:18:43 UTC

; 

; external perimeters extrusion width = 0.60mm
; perimeters extrusion width = 0.50mm
; infill extrusion width = 0.50mm
; solid infill extrusion width = 0.50mm
; top infill extrusion width = 0.45mm
; first layer extrusion width = 0.42mm

M73 P0 R108
M73 Q0 S108
M201 X1000 Y1000 Z1000 E5000 ; sets maximum accelerations, mm/sec^2
M203 X200 Y200 Z12 E120 ; sets maximum feedrates, mm/sec
M204 P1250 R1250 T1250 ; sets acceleration (P, T) and retract acceleration (R), mm/sec^2
M205 X8.00 Y8.00 Z0.40 E4.50 ; sets the jerk limits, mm/sec
M205 S0 T0 ; sets the minimum extruding and travel feed rate, mm/sec
M107
M862.3 P "MK3S" ; printer model check
M862.1 P0.4 ; nozzle diameter check
M115 U3.8.1 ; tell printer latest fw version
G90 ; use absolute coordinates
M83 ; extruder relative mode
M104 S240 ; set extruder temp
M140 S85 ; set bed temp
M190 S85 ; wait for bed temp
M109 S240 ; wait for extruder temp
G28 W ; home all without mesh bed level
G80 ; mesh bed leveling
G1 Y-3.0 F1000.0 ; go outside print area
G92 E0.0
G1 Z0.6
G1 X60.0 E6.0 F1000.0 ; intro line
M73 Q0 S108
M73 P0 R108
G1 X100.0 E9.0 F1000.0 ; intro line
G1 X90.0 E0.01 F1000.0 ; wipe nozzle
G1 X100.0 E0.01 F1000.0 ; wipe nozzle
G1 X120.0 Z0.0
G92 E0.0
M221 S95
G21 ; set units to millimeters
G90 ; use absolute coordinates
M83 ; use relative distances for extrusion
M900 K45 ; Filament gcode
;BEFORE_LAYER_CHANGE
G92 E0.0
;0.2


G1 E-1.40000 F2100.00000
G1 Z0.200 F10800.000
;AFTER_LAYER_CHANGE
;0.2
G1 Z0.400
G1 X81.509 Y68.509
G1 Z0.200
G1 E1.40000 F2100.00000
M204 S1000
G1 F1200.000
G1 X83.474 Y66.320 E0.09226
G1 X85.115 Y64.627 E0.07391
G1 X88.521 Y61.504 E0.14489
G1 X91.883 Y58.893 E0.13346
G1 X94.259 Y57.281 E0.09004
G1 X96.269 Y56.048 E0.07395
G1 X98.833 Y54.628 E0.09188
G1 X101.074 Y53.524 E0.07833
G1 X103.707 Y52.382 E0.08998
G1 X106.790 Y51.236 E0.10314
G1 X109.237 Y50.472 E0.08036
G1 X112.163 Y49.706 E0.09485
G1 X113.992 Y49.315 E0.05865
G1 X116.141 Y48.933 E0.06843
G1 X119.049 Y48.549 E0.09197
G1 X122.728 Y48.326 E0.11557
G1 X125.187 Y48.275 E0.07711
G1 X130.959 Y48.550 E0.18116
G1 X133.859 Y48.933 E0.09172
G1 X136.014 Y49.316 E0.06863
G1 X139.350 Y50.079 E0.10729
G1 X141.993 Y50.839 E0.08625
G1 X146.314 Y52.391 E0.14396
G1 X148.942 Y53.531 E0.08980
G1 X151.962 Y55.045 E0.10592
G1 X154.671 Y56.606 E0.09804
G1 X156.829 Y57.998 E0.08052
G1 X159.566 Y59.969 E0.10576
G1 X161.512 Y61.530 E0.07821
G1 X165.371 Y65.113 E0.16509
G1 X168.518 Y68.542 E0.14593
G1 X171.127 Y71.902 E0.13339
G1 X172.741 Y74.281 E0.09014
G1 X173.977 Y76.295 E0.07407
G1 X175.391 Y78.853 E0.09165
G1 X176.475 Y81.049 E0.07679
G1 X177.618 Y83.677 E0.08985
G1 X178.762 Y86.745 E0.10266
G1 X179.527 Y89.171 E0.07975
G1 X180.685 Y93.897 E0.15258
G1 X181.066 Y96.000 E0.06702
G1 X181.450 Y98.850 E0.09016
G1 X181.706 Y102.869 E0.12626
G1 X181.761 Y105.256 E0.07488
G1 X181.688 Y107.642 E0.07484
G1 X181.449 Y111.208 E0.11207
G1 X181.066 Y114.042 E0.08965
G1 X180.678 Y116.182 E0.06820
G1 X179.919 Y119.458 E0.10545
G1 X179.154 Y122.106 E0.08640
G1 X178.380 Y124.390 E0.07562
G1 X177.242 Y127.269 E0.09706
G1 X176.085 Y129.807 E0.08748
G1 X174.573 Y132.721 E0.10290
G1 X172.109 Y136.726 E0.14747
G1 X170.206 Y139.387 E0.10255
G1 X168.726 Y141.253 E0.07469
G1 X166.535 Y143.724 E0.10353
G1 X164.948 Y145.370 E0.07171
G1 X161.221 Y148.757 E0.15788
G1 X159.364 Y150.229 E0.07432
G1 X156.675 Y152.151 E0.10362
G1 X154.555 Y153.507 E0.07891
G1 X151.873 Y155.041 E0.09687
G1 X149.031 Y156.467 E0.09970
G1 X146.399 Y157.617 E0.09006
G1 X143.344 Y158.760 E0.10226
G1 X140.938 Y159.525 E0.07916
G1 X136.250 Y160.683 E0.15140
G1 X134.160 Y161.064 E0.06662
G1 X131.379 Y161.449 E0.08803
G1 X127.615 Y161.716 E0.11831
G1 X124.809 Y161.797 E0.08802
G1 X121.598 Y161.669 E0.10075
G1 X118.611 Y161.448 E0.09392
G1 X115.842 Y161.064 E0.08764
G1 X113.722 Y160.678 E0.06756
G1 X110.476 Y159.917 E0.10453
G1 X107.845 Y159.152 E0.08592
G1 X105.574 Y158.379 E0.07522
G1 X102.695 Y157.241 E0.09705
G1 X100.169 Y156.084 E0.08714
G1 X97.262 Y154.571 E0.10274
G1 X93.297 Y152.132 E0.14597
G1 X90.636 Y150.229 E0.10257
G1 X88.770 Y148.750 E0.07466
G1 X86.273 Y146.534 E0.10468
G1 X84.628 Y144.946 E0.07169
G1 X81.266 Y141.244 E0.15680
G1 X79.793 Y139.386 E0.07433
G1 X77.872 Y136.697 E0.10361
G1 X76.512 Y134.574 E0.07907
G1 X74.978 Y131.891 E0.09689
G1 X73.532 Y129.006 E0.10118
G1 X72.382 Y126.365 E0.09031
G1 X71.238 Y123.298 E0.10263
G1 X70.473 Y120.882 E0.07946
G1 X69.316 Y116.151 E0.15273
G1 X68.934 Y114.040 E0.06724
G1 X68.550 Y111.198 E0.08995
G1 X68.291 Y107.132 E0.12773
G1 X68.240 Y104.743 E0.07493
G1 X68.315 Y102.352 E0.07500
G1 X68.551 Y98.837 E0.11045
G1 X68.934 Y96.001 E0.08974
G1 X69.322 Y93.864 E0.06810
G1 X70.081 Y90.584 E0.10555
G1 X70.846 Y87.937 E0.08639
G1 X71.621 Y85.647 E0.07580
G1 X72.759 Y82.777 E0.09680
G1 X73.908 Y80.249 E0.08706
G1 X75.062 Y77.991 E0.07951
G1 X76.580 Y75.354 E0.09540
G1 X77.988 Y73.175 E0.08135
G1 X79.948 Y70.456 E0.10509
G1 X81.471 Y68.556 E0.07635
G1 F8640.000
G1 X83.474 Y66.320 E-0.69323
G1 X85.115 Y64.627 E-0.54427
G1 X85.410 Y64.357 E-0.09249
G1 E-0.07000 F2100.00000
G1 Z0.400 F10800.000
G1 X151.718 Y58.732
G1 Z0.200
G1 E1.40000 F2100.00000
G1 F1200.000
G1 X152.108 Y58.773 E0.01230
G1 X152.163 Y58.798 E0.00189
G1 X152.220 Y58.834 E0.00212
G1 X152.415 Y59.130 E0.01112
G1 X152.800 Y59.198 E0.01226
G1 X153.041 Y59.320 E0.00846
G1 X153.371 Y59.542 E0.01248
G1 X153.516 Y59.829 E0.01008
G1 X153.910 Y59.881 E0.01248
G1 X154.023 Y59.939 E0.00399
G1 X154.480 Y60.258 E0.01746
G1 X154.605 Y60.546 E0.00984
G1 X155.002 Y60.594 E0.01252
G1 X155.084 Y60.639 E0.00295
G1 X155.549 Y60.981 E0.01809
G1 X155.680 Y61.284 E0.01034
G1 X156.076 Y61.344 E0.01255
G1 X156.262 Y61.457 E0.00683
G1 X156.580 Y61.704 E0.01264
G1 X156.745 Y62.035 E0.01158
G1 X157.051 Y62.104 E0.00983
G1 X157.137 Y62.356 E0.00836
G1 X157.530 Y62.410 E0.01245
G1 X157.665 Y62.500 E0.00508
G1 X158.017 Y62.787 E0.01425
G1 X158.183 Y63.130 E0.01196
G1 X158.469 Y63.208 E0.00926
G1 X158.565 Y63.468 E0.00871
G1 X158.883 Y63.532 E0.01014
G1 X158.954 Y63.797 E0.00862
G1 X159.338 Y63.849 E0.01216
G1 X159.491 Y63.966 E0.00603
G1 X160.594 Y64.950 E0.04633
G1 X160.723 Y65.295 E0.01155
G1 X161.006 Y65.375 E0.00921
G1 X161.094 Y65.647 E0.00897
G1 X161.386 Y65.721 E0.00944
G1 X161.465 Y66.000 E0.00909
G1 X161.763 Y66.069 E0.00959
G1 X161.835 Y66.354 E0.00922
G1 X162.136 Y66.419 E0.00967
G1 X162.203 Y66.710 E0.00937
G1 X162.505 Y66.773 E0.00968
G1 X162.568 Y67.069 E0.00951
G1 X162.869 Y67.131 E0.00962
G1 X162.931 Y67.431 E0.00961
G1 X163.228 Y67.495 E0.00951
G1 X163.291 Y67.797 E0.00967
G1 X163.582 Y67.863 E0.00937
G1 X163.647 Y68.164 E0.00967
G1 X163.933 Y68.236 E0.00922
G1 X164.002 Y68.534 E0.00959
G1 X164.280 Y68.612 E0.00908
G1 X164.355 Y68.904 E0.00944
G1 X164.627 Y68.992 E0.00896
G1 X164.707 Y69.275 E0.00922
G1 X165.056 Y69.406 E0.01169
G1 X166.013 Y70.481 E0.04512
G1 X166.157 Y70.665 E0.00732
G1 X166.208 Y71.041 E0.01190
G1 X166.472 Y71.112 E0.00857
G1 X166.536 Y71.430 E0.01018
G1 X166.796 Y71.526 E0.00866
G1 X166.873 Y71.813 E0.00930
G1 X167.213 Y71.977 E0.01185
G1 X167.458 Y72.276 E0.01211
G1 X167.599 Y72.476 E0.00768
G1 X167.651 Y72.856 E0.01202
G1 X167.901 Y72.942 E0.00828
G1 X167.971 Y73.250 E0.00991
G1 X168.298 Y73.412 E0.01145
G1 X168.563 Y73.758 E0.01368
G1 X168.664 Y73.924 E0.00610
G1 X168.724 Y74.312 E0.01231
G1 X169.010 Y74.437 E0.00979
G1 X169.416 Y74.999 E0.02174
G1 X169.464 Y75.386 E0.01223
G1 X169.730 Y75.501 E0.00911
G1 X170.085 Y76.003 E0.01926
G1 X170.130 Y76.090 E0.00307
G1 X170.180 Y76.474 E0.01217
G1 X170.443 Y76.607 E0.00922
G1 X170.709 Y76.989 E0.01459
G1 X170.812 Y77.197 E0.00730
G1 X170.879 Y77.576 E0.01206
G1 X171.167 Y77.765 E0.01080
G1 X171.225 Y77.860 E0.00349
G1 X171.280 Y78.270 E0.01298
G1 X171.518 Y78.402 E0.00852
G1 X171.673 Y78.648 E0.00911
G1 X171.702 Y78.967 E0.01004
G1 X171.884 Y79.053 E0.00633
G1 X171.931 Y79.157 E0.00358
G1 X172.175 Y79.539 E0.01421
G1 X172.258 Y79.737 E0.00674
G1 X172.322 Y80.107 E0.01176
G1 X172.583 Y80.322 E0.01061
G1 X172.636 Y80.457 E0.00455
G1 X172.693 Y80.821 E0.01157
G1 X172.933 Y81.022 E0.00981
G1 X173.004 Y81.192 E0.00578
G1 X173.056 Y81.542 E0.01109
G1 X173.301 Y81.757 E0.01022
G1 X173.356 Y81.911 E0.00512
G1 X173.409 Y82.254 E0.01089
G1 X173.652 Y82.509 E0.01105
G1 X173.744 Y82.773 E0.00875
G1 X173.936 Y83.113 E0.01224
G1 X174.077 Y83.500 E0.01291
G1 X174.176 Y83.688 E0.00668
G1 X174.226 Y84.034 E0.01095
G1 X174.390 Y84.172 E0.00672
G1 X174.453 Y84.328 E0.00528
G1 X174.485 Y84.438 E0.00358
G1 X174.523 Y84.772 E0.01055
G1 X174.722 Y84.984 E0.00910
G1 X174.824 Y85.307 E0.01063
G1 X174.934 Y85.529 E0.00777
G1 X174.963 Y85.814 E0.00897
G1 X175.102 Y85.945 E0.00600
G1 X175.199 Y86.259 E0.01032
G1 X175.237 Y86.583 E0.01022
G1 X175.433 Y86.834 E0.00998
G1 X175.507 Y87.107 E0.00886
G1 X175.570 Y87.255 E0.00504
G1 X175.633 Y87.660 E0.01287
G1 X175.795 Y87.875 E0.00844
G1 X175.877 Y88.194 E0.01032
G1 X175.939 Y88.348 E0.00521
G1 X175.993 Y88.725 E0.01195
G1 X176.160 Y88.991 E0.00984
G1 X176.273 Y89.404 E0.01344
G1 X176.333 Y89.824 E0.01330
G1 X176.509 Y90.146 E0.01149
G1 X176.639 Y90.731 E0.01879
G1 X176.711 Y90.930 E0.00662
G1 X176.742 Y91.233 E0.00957
G1 X176.871 Y91.458 E0.00813
G1 X177.016 Y92.179 E0.02307
G1 X177.086 Y92.392 E0.00703
G1 X177.110 Y92.666 E0.00860
G1 X177.228 Y92.901 E0.00827
G1 X177.354 Y93.620 E0.02289
G1 X177.403 Y93.793 E0.00562
G1 X177.434 Y94.131 E0.01066
G1 X177.584 Y94.546 E0.01383
G1 X177.753 Y95.591 E0.03318
G1 X177.783 Y95.954 E0.01144
G1 X177.844 Y96.152 E0.00648
G1 X177.848 Y96.245 E0.00294
G1 X177.945 Y96.537 E0.00964
G1 X178.146 Y98.157 E0.05117
G1 X178.162 Y98.452 E0.00928
G1 X178.302 Y99.182 E0.02329
G1 X178.435 Y100.992 E0.05692
G1 X178.546 Y103.018 E0.06360
G1 X178.585 Y104.100 E0.03397
G1 X178.597 Y105.245 E0.03589
G1 X178.576 Y106.347 E0.03455
G1 X178.528 Y107.478 E0.03548
G1 X178.301 Y110.880 E0.10693
G1 X178.083 Y112.230 E0.04287
G1 X177.940 Y113.542 E0.04136
G1 X177.782 Y114.220 E0.02184
G1 X177.765 Y114.397 E0.00559
G1 X177.686 Y114.755 E0.01150
G1 X177.578 Y115.537 E0.02472
G1 X177.437 Y116.025 E0.01595
G1 X177.418 Y116.190 E0.00521
G1 X177.318 Y116.566 E0.01218
G1 X177.215 Y117.210 E0.02044
G1 X176.970 Y118.020 E0.02654
G1 X176.856 Y118.652 E0.02013
G1 X176.755 Y118.913 E0.00878
G1 X176.735 Y119.041 E0.00407
G1 X176.591 Y119.465 E0.01402
G1 X176.492 Y119.973 E0.01623
G1 X176.336 Y120.360 E0.01308
G1 X176.296 Y120.570 E0.00672
G1 X176.184 Y120.901 E0.01096
G1 X176.131 Y121.157 E0.00818
G1 X176.004 Y121.442 E0.00980
G1 X175.968 Y121.619 E0.00566
G1 X175.828 Y121.992 E0.01248
G1 X175.768 Y122.259 E0.00858
G1 X175.642 Y122.527 E0.00927
G1 X175.602 Y122.709 E0.00585
G1 X175.456 Y123.078 E0.01246
G1 X175.405 Y123.297 E0.00704
G1 X175.252 Y123.611 E0.01095
G1 X175.194 Y123.842 E0.00748
G1 X175.069 Y124.150 E0.01042
G1 X175.038 Y124.279 E0.00414
G1 X174.755 Y124.898 E0.02137
G1 X174.681 Y125.174 E0.00894
G1 X174.550 Y125.418 E0.00869
G1 X174.489 Y125.630 E0.00690
G1 X174.340 Y125.961 E0.01139
G1 X174.312 Y126.066 E0.00342
G1 X174.001 Y126.712 E0.02245
G1 X173.951 Y126.900 E0.00610
G1 X173.663 Y127.435 E0.01905
G1 X173.593 Y127.672 E0.00777
G1 X173.431 Y127.947 E0.01002
G1 X173.326 Y128.239 E0.00971
G1 X173.083 Y128.670 E0.01551
G1 X172.981 Y128.945 E0.00919
G1 X172.890 Y129.126 E0.00635
G1 X172.722 Y129.393 E0.00990
G1 X172.617 Y129.661 E0.00903
G1 X172.342 Y130.126 E0.01693
G1 X172.219 Y130.419 E0.00997
G1 X171.826 Y131.066 E0.02372
G1 X171.769 Y131.242 E0.00582
G1 X171.569 Y131.547 E0.01143
G1 X171.304 Y132.053 E0.01789
G1 X170.915 Y132.657 E0.02253
G1 X170.768 Y132.954 E0.01038
G1 X170.371 Y133.550 E0.02247
G1 X170.169 Y133.912 E0.01300
G1 X169.631 Y134.682 E0.02944
G1 X169.583 Y134.802 E0.00405
G1 X169.488 Y134.952 E0.00555
G1 X168.897 Y135.763 E0.03148
G1 X168.859 Y135.853 E0.00308
G1 X168.678 Y136.124 E0.01020
G1 X168.020 Y136.986 E0.03401
G1 X167.671 Y137.493 E0.01930
G1 X166.912 Y138.427 E0.03775
G1 X166.286 Y139.239 E0.03213
G1 X165.294 Y140.375 E0.04728
G1 X164.205 Y141.583 E0.05101
G1 X163.483 Y142.350 E0.03302
G1 X162.723 Y143.120 E0.03394
G1 X161.188 Y144.568 E0.06615
G1 X159.214 Y146.310 E0.08255
G1 X158.428 Y146.916 E0.03112
G1 X157.470 Y147.693 E0.03868
G1 X156.987 Y148.025 E0.01840
G1 X156.106 Y148.697 E0.03473
G1 X155.537 Y149.065 E0.02124
G1 X154.933 Y149.508 E0.02348
G1 X154.455 Y149.794 E0.01747
G1 X153.885 Y150.194 E0.02182
G1 X153.366 Y150.493 E0.01879
G1 X152.931 Y150.790 E0.01652
G1 X152.658 Y150.925 E0.00955
G1 X152.030 Y151.327 E0.02337
G1 X151.555 Y151.573 E0.01677
G1 X151.217 Y151.795 E0.01269
G1 X150.845 Y151.966 E0.01283
G1 X150.398 Y152.240 E0.01644
G1 X150.116 Y152.358 E0.00959
G1 X149.654 Y152.632 E0.01685
G1 X149.393 Y152.735 E0.00878
G1 X149.141 Y152.894 E0.00935
G1 X148.924 Y153.002 E0.00760
G1 X148.670 Y153.097 E0.00848
G1 X148.412 Y153.254 E0.00948
G1 X147.948 Y153.444 E0.01574
G1 X147.671 Y153.607 E0.01006
G1 X147.218 Y153.784 E0.01528
G1 X146.893 Y153.966 E0.01165
G1 X146.506 Y154.106 E0.01292
G1 X146.072 Y154.324 E0.01522
G1 X145.782 Y154.424 E0.00961
G1 X145.597 Y154.515 E0.00648
G1 X145.418 Y154.566 E0.00583
G1 X145.184 Y154.692 E0.00832
G1 X144.690 Y154.858 E0.01635
G1 X144.295 Y155.049 E0.01375
G1 X143.977 Y155.145 E0.01042
G1 X143.810 Y155.219 E0.00573
G1 X143.611 Y155.269 E0.00642
G1 X143.309 Y155.417 E0.01055
G1 X142.503 Y155.672 E0.02650
G1 X142.285 Y155.775 E0.00757
G1 X141.801 Y155.907 E0.01571
G1 X141.586 Y155.994 E0.00727
G1 X141.443 Y156.023 E0.00460
G1 X141.184 Y156.138 E0.00885
G1 X140.339 Y156.363 E0.02745
G1 X140.011 Y156.498 E0.01110
G1 X139.272 Y156.669 E0.02379
G1 X138.715 Y156.857 E0.01842
G1 X137.822 Y157.046 E0.02861
G1 X137.271 Y157.218 E0.01812
G1 X136.022 Y157.460 E0.03987
G1 X135.622 Y157.581 E0.01312
G1 X134.201 Y157.809 E0.04511
G1 X133.648 Y157.941 E0.01783
G1 X132.042 Y158.137 E0.05073
G1 X131.052 Y158.301 E0.03146
G1 X129.349 Y158.436 E0.05354
G1 X127.450 Y158.556 E0.05969
G1 X125.939 Y158.620 E0.04740
G1 X124.822 Y158.632 E0.03502
G1 X123.380 Y158.595 E0.04524
G1 X121.778 Y158.510 E0.05028
G1 X118.960 Y158.302 E0.08860
G1 X118.424 Y158.193 E0.01717
G1 X118.190 Y158.181 E0.00733
G1 X117.754 Y158.102 E0.01392
G1 X116.370 Y157.942 E0.04368
G1 X115.917 Y157.812 E0.01476
G1 X115.623 Y157.789 E0.00926
G1 X115.223 Y157.700 E0.01283
G1 X114.406 Y157.583 E0.02587
G1 X114.105 Y157.467 E0.01013
G1 X113.828 Y157.441 E0.00873
G1 X113.414 Y157.331 E0.01341
G1 X112.783 Y157.226 E0.02008
G1 X112.626 Y157.147 E0.00550
G1 X112.433 Y157.132 E0.00605
G1 X111.966 Y156.984 E0.01537
G1 X111.348 Y156.867 E0.01970
G1 X111.194 Y156.778 E0.00559
G1 X110.971 Y156.757 E0.00702
G1 X110.517 Y156.602 E0.01503
G1 X110.038 Y156.506 E0.01532
G1 X109.803 Y156.366 E0.00859
G1 X109.440 Y156.315 E0.01149
G1 X109.080 Y156.192 E0.01191
G1 X108.872 Y156.147 E0.00667
G1 X108.701 Y156.029 E0.00651
G1 X108.388 Y155.986 E0.00992
G1 X107.991 Y155.837 E0.01330
G1 X107.783 Y155.788 E0.00671
G1 X107.623 Y155.667 E0.00628
G1 X107.296 Y155.618 E0.01036
G1 X106.905 Y155.463 E0.01321
G1 X106.751 Y155.427 E0.00495
G1 X106.566 Y155.282 E0.00736
G1 X106.162 Y155.209 E0.01287
G1 X105.827 Y155.074 E0.01132
G1 X105.755 Y154.997 E0.00329
G1 X105.568 Y154.988 E0.00589
G1 X105.091 Y154.764 E0.01652
G1 X104.898 Y154.710 E0.00628
G1 X104.755 Y154.576 E0.00615
G1 X104.379 Y154.503 E0.01198
G1 X104.075 Y154.374 E0.01035
G1 X103.977 Y154.257 E0.00478
G1 X103.735 Y154.235 E0.00762
G1 X103.280 Y154.008 E0.01595
G1 X103.081 Y153.953 E0.00647
G1 X102.551 Y153.669 E0.01886
G1 X102.413 Y153.628 E0.00452
G1 X102.237 Y153.443 E0.00799
G1 X101.911 Y153.393 E0.01033
G1 X101.697 Y153.305 E0.00725
G1 X101.508 Y153.090 E0.00899
G1 X101.181 Y153.041 E0.01035
G1 X100.973 Y152.948 E0.00717
G1 X100.787 Y152.727 E0.00906
G1 X100.457 Y152.676 E0.01048
G1 X100.348 Y152.633 E0.00368
G1 X100.268 Y152.590 E0.00283
G1 X100.074 Y152.354 E0.00957
G1 X99.738 Y152.297 E0.01071
G1 X99.600 Y152.239 E0.00469
G1 X98.922 Y151.829 E0.02483
G1 X98.751 Y151.774 E0.00564
G1 X98.330 Y151.514 E0.01550
